X:1
T:John A. Munroe
M:3/4
L:1/4
K:F
 C| F2 G| A- G A| c c d| F2 F| A- G A| F2 F| F2 c| d2 c| f- dc/2-A/2|\
 c2 d| c- A G| F2 G| A- G A| c2 c| d2 d| f- dc/2-A/2| c2 d| c- A G|\
 F2 G| A- G A| c2 C/2C/2| F2 G| A G A| c2 d| F2 F| A- G A| F2 F| F2||\
